luts/ailog_to_linear_4096_1d.cube
# ailog to Linear - 1D LUT
# Converted from 3D LUT (65x65x65) to 1D LUT (4096)
#
# Features:
#   - True black (0 -> 0)
#   - Full HDR range (~470 peak)
#   - No negative values
#   - 63x higher resolution than original 3D LUT
#
LUT_1D_SIZE 4096

DOMAIN_MIN 0.0 0.0 0.0
DOMAIN_MAX 1.0 1.0 1.0

0.0000000000 0.0000000000 0.0000000000
0.0000290760 0.0000290760 0.0000290760
0.0000581537 0.0000581537 0.0000581537
0.0000872346 0.0000872346 0.0000872346
0.0001163205 0.0001163205 0.0001163205
0.0001454129 0.0001454129 0.0001454129
0.0001745135 0.0001745135 0.0001745135
0.0002036239 0.0002036239 0.0002036239
0.0002327458 0.0002327458 0.0002327458
0.0002618808 0.0002618808 0.0002618808
0.0002910306 0.0002910306 0.0002910306
0.0003201967 0.0003201967 0.0003201967
0.0003493808 0.0003493808 0.0003493808
0.0003785847 0.0003785847 0.0003785847
0.0004078098 0.0004078098 0.0004078098
0.0004370578 0.0004370578 0.0004370578
0.0004663304 0.0004663304 0.0004663304
0.0004956293 0.0004956293 0.0004956293
0.0005249559 0.0005249559 0.0005249559
0.0005543121 0.0005543121 0.0005543121
0.0005836994 0.0005836994 0.0005836994
0.0006131195 0.0006131195 0.0006131195
0.0006425739 0.0006425739 0.0006425739
0.0006720645 0.0006720645 0.0006720645
0.0007015926 0.0007015926 0.0007015926
0.0007311601 0.0007311601 0.0007311601
0.0007607686 0.0007607686 0.0007607686
0.0007904197 0.0007904197 0.0007904197
0.0008201150 0.0008201150 0.0008201150
0.0008498561 0.0008498561 0.0008498561
0.0008796448 0.0008796448 0.0008796448
0.0009094826 0.0009094826 0.0009094826
0.0009393712 0.0009393712 0.0009393712
0.0009693123 0.0009693123 0.0009693123
0.0009993074 0.0009993074 0.0009993074
0.0010293582 0.0010293582 0.0010293582
0.0010594663 0.0010594663 0.0010594663
0.0010896334 0.0010896334 0.0010896334
0.0011198612 0.0011198612 0.0011198612
0.0011501512 0.0011501512 0.0011501512
0.0011805050 0.0011805050 0.0011805050
0.0012109244 0.0012109244 0.0012109244
0.0012414110 0.0012414110 0.0012414110
0.0012719664 0.0012719664 0.0012719664
0.0013025922 0.0013025922 0.0013025922
0.0013332902 0.0013332902 0.0013332902
0.0013640618 0.0013640618 0.0013640618
0.0013949088 0.0013949088 0.0013949088
0.0014258328 0.0014258328 0.0014258328
0.0014568355 0.0014568355 0.0014568355
0.0014879184 0.0014879184 0.0014879184
0.0015190832 0.0015190832 0.0015190832
0.0015503316 0.0015503316 0.0015503316
0.0015816651 0.0015816651 0.0015816651
0.0016130855 0.0016130855 0.0016130855
0.0016445944 0.0016445944 0.0016445944
0.0016761934 0.0016761934 0.0016761934
0.0017078841 0.0017078841 0.0017078841
0.0017396682 0.0017396682 0.0017396682
0.0017715473 0.0017715473 0.0017715473
0.0018035231 0.0018035231 0.0018035231
0.0018355971 0.0018355971 0.0018355971
0.0018677712 0.0018677712 0.0018677712
0.0019000467 0.0019000467 0.0019000467
0.0019324255 0.0019324255 0.0019324255
0.0019649088 0.0019649088 0.0019649088
0.0019974969 0.0019974969 0.0019974969
0.0020301894 0.0020301894 0.0020301894
0.0020629864 0.0020629864 0.0020629864
0.0020958876 0.0020958876 0.0020958876
0.0021288929 0.0021288929 0.0021288929
0.0021620022 0.0021620022 0.0021620022
0.0021952153 0.0021952153 0.0021952153
0.0022285322 0.0022285322 0.0022285322
0.0022619525 0.0022619525 0.0022619525
0.0022954763 0.0022954763 0.0022954763
0.0023291034 0.0023291034 0.0023291034
0.0023628336 0.0023628336 0.0023628336
0.0023966668 0.0023966668 0.0023966668
0.0024306028 0.0024306028 0.0024306028
0.0024646416 0.0024646416 0.0024646416
0.0024987829 0.0024987829 0.0024987829
0.0025330266 0.0025330266 0.0025330266
0.0025673727 0.0025673727 0.0025673727
0.0026018208 0.0026018208 0.0026018208
0.0026363710 0.0026363710 0.0026363710
0.0026710230 0.0026710230 0.0026710230
0.0027057768 0.0027057768 0.0027057768
0.0027406321 0.0027406321 0.0027406321
0.0027755889 0.0027755889 0.0027755889
0.0028106470 0.0028106470 0.0028106470
0.0028458062 0.0028458062 0.0028458062
0.0028810665 0.0028810665 0.0028810665
0.0029164276 0.0029164276 0.0029164276
0.0029518895 0.0029518895 0.0029518895
0.0029874519 0.0029874519 0.0029874519
0.0030231148 0.0030231148 0.0030231148
0.0030588780 0.0030588780 0.0030588780
0.0030947414 0.0030947414 0.0030947414
0.0031307049 0.0031307049 0.0031307049
0.0031667682 0.0031667682 0.0031667682
0.0032029312 0.0032029312 0.0032029312
0.0032391939 0.0032391939 0.0032391939
0.0032755560 0.0032755560 0.0032755560
0.0033120175 0.0033120175 0.0033120175
0.0033485782 0.0033485782 0.0033485782
0.0033852378 0.0033852378 0.0033852378
0.0034219964 0.0034219964 0.0034219964
0.0034588538 0.0034588538 0.0034588538
0.0034958098 0.0034958098 0.0034958098
0.0035328642 0.0035328642 0.0035328642
0.0035700170 0.0035700170 0.0035700170
0.0036072680 0.0036072680 0.0036072680
0.0036446171 0.0036446171 0.0036446171
0.0036820640 0.0036820640 0.0036820640
0.0037196088 0.0037196088 0.0037196088
0.0037572512 0.0037572512 0.0037572512
0.0037949910 0.0037949910 0.0037949910
0.0038328283 0.0038328283 0.0038328283
0.0038707627 0.0038707627 0.0038707627
0.0039087942 0.0039087942 0.0039087942
0.0039469227 0.0039469227 0.0039469227
0.0039851479 0.0039851479 0.0039851479
0.0040234698 0.0040234698 0.0040234698
0.0040618881 0.0040618881 0.0040618881
0.0041004029 0.0041004029 0.0041004029
0.0041390139 0.0041390139 0.0041390139
0.0041777209 0.0041777209 0.0041777209
0.0042165239 0.0042165239 0.0042165239
0.0042554228 0.0042554228 0.0042554228
0.0042944180 0.0042944180 0.0042944180
0.0043335097 0.0043335097 0.0043335097
0.0043726984 0.0043726984 0.0043726984
0.0044119845 0.0044119845 0.0044119845
0.0044513683 0.0044513683 0.0044513683
0.0044908503 0.0044908503 0.0044908503
0.0045304309 0.0045304309 0.0045304309
0.0045701104 0.0045701104 0.0045701104
0.0046098892 0.0046098892 0.0046098892
0.0046497678 0.0046497678 0.0046497678
0.0046897464 0.0046897464 0.0046897464
0.0047298256 0.0047298256 0.0047298256
0.0047700056 0.0047700056 0.0047700056
0.0048102870 0.0048102870 0.0048102870
0.0048506700 0.0048506700 0.0048506700
0.0048911550 0.0048911550 0.0048911550
0.0049317425 0.0049317425 0.0049317425
0.0049724329 0.0049724329 0.0049724329
0.0050132265 0.0050132265 0.0050132265
0.0050541237 0.0050541237 0.0050541237
0.0050951249 0.0050951249 0.0050951249
0.0051362305 0.0051362305 0.0051362305
0.0051774409 0.0051774409 0.0051774409
0.0052187565 0.0052187565 0.0052187565
0.0052601776 0.0052601776 0.0052601776
0.0053017047 0.0053017047 0.0053017047
0.0053433382 0.0053433382 0.0053433382
0.0053850784 0.0053850784 0.0053850784
0.0054269257 0.0054269257 0.0054269257
0.0054688806 0.0054688806 0.0054688806
0.0055109433 0.0055109433 0.0055109433
0.0055531144 0.0055531144 0.0055531144
0.0055953941 0.0055953941 0.0055953941
0.0056377830 0.0056377830 0.0056377830
0.0056802813 0.0056802813 0.0056802813
0.0057228895 0.0057228895 0.0057228895
0.0057656079 0.0057656079 0.0057656079
0.0058084369 0.0058084369 0.0058084369
0.0058513770 0.0058513770 0.0058513770
0.0058944285 0.0058944285 0.0058944285
0.0059375918 0.0059375918 0.0059375918
0.0059808674 0.0059808674 0.0059808674
0.0060242555 0.0060242555 0.0060242555
0.0060677566 0.0060677566 0.0060677566
0.0061113710 0.0061113710 0.0061113710
0.0061550992 0.0061550992 0.0061550992
0.0061989416 0.0061989416 0.0061989416
0.0062428985 0.0062428985 0.0062428985
0.0062869704 0.0062869704 0.0062869704
0.0063311575 0.0063311575 0.0063311575
0.0063754604 0.0063754604 0.0063754604
0.0064198794 0.0064198794 0.0064198794
0.0064644149 0.0064644149 0.0064644149
0.0065090672 0.0065090672 0.0065090672
0.0065538368 0.0065538368 0.0065538368
0.0065987241 0.0065987241 0.0065987241
0.0066437295 0.0066437295 0.0066437295
0.0066888532 0.0066888532 0.0066888532
0.0067340959 0.0067340959 0.0067340959
0.0067794577 0.0067794577 0.0067794577
0.0068249391 0.0068249391 0.0068249391
0.0068705406 0.0068705406 0.0068705406
0.0069162624 0.0069162624 0.0069162624
0.0069621050 0.0069621050 0.0069621050
0.0070080687 0.0070080687 0.0070080687
0.0070541538 0.0070541538 0.0070541538
0.0071003606 0.0071003606 0.0071003606
0.0071466894 0.0071466894 0.0071466894
0.0071931406 0.0071931406 0.0071931406
0.0072397144 0.0072397144 0.0072397144
0.0072864112 0.0072864112 0.0072864112
0.0073332312 0.0073332312 0.0073332312
0.0073801749 0.0073801749 0.0073801749
0.0074272424 0.0074272424 0.0074272424
0.0074744342 0.0074744342 0.0074744342
0.0075217504 0.0075217504 0.0075217504
0.0075691915 0.0075691915 0.0075691915
0.0076167577 0.0076167577 0.0076167577
0.0076644494 0.0076644494 0.0076644494
0.0077122669 0.0077122669 0.0077122669
0.0077602104 0.0077602104 0.0077602104
0.0078082804 0.0078082804 0.0078082804
0.0078564770 0.0078564770 0.0078564770
0.0079048007 0.0079048007 0.0079048007
0.0079532516 0.0079532516 0.0079532516
0.0080018302 0.0080018302 0.0080018302
0.0080505368 0.0080505368 0.0080505368
0.0080993716 0.0080993716 0.0080993716
0.0081483350 0.0081483350 0.0081483350
0.0081974273 0.0081974273 0.0081974273
0.0082466488 0.0082466488 0.0082466488
0.0082959998 0.0082959998 0.0082959998
0.0083454806 0.0083454806 0.0083454806
0.0083950916 0.0083950916 0.0083950916
0.0084448330 0.0084448330 0.0084448330
0.0084947051 0.0084947051 0.0084947051
0.0085447084 0.0085447084 0.0085447084
0.0085948430 0.0085948430 0.0085948430
0.0086451093 0.0086451093 0.0086451093
0.0086955076 0.0086955076 0.0086955076
0.0087460382 0.0087460382 0.0087460382
0.0087967014 0.0087967014 0.0087967014
0.0088474976 0.0088474976 0.0088474976
0.0088984270 0.0088984270 0.0088984270
0.0089494900 0.0089494900 0.0089494900
0.0090006869 0.0090006869 0.0090006869
0.0090520180 0.0090520180 0.0090520180
0.0091034835 0.0091034835 0.0091034835
0.0091550839 0.0091550839 0.0091550839
0.0092068194 0.0092068194 0.0092068194
0.0092586904 0.0092586904 0.0092586904
0.0093106970 0.0093106970 0.0093106970
0.0093628398 0.0093628398 0.0093628398
0.0094151189 0.0094151189 0.0094151189
0.0094675347 0.0094675347 0.0094675347
0.0095200875 0.0095200875 0.0095200875
0.0095727776 0.0095727776 0.0095727776
0.0096256053 0.0096256053 0.0096256053
0.0096785709 0.0096785709 0.0096785709
0.0097316748 0.0097316748 0.0097316748
0.0097849172 0.0097849172 0.0097849172
0.0098382985 0.0098382985 0.0098382985
0.0098918190 0.0098918190 0.0098918190
0.0099454790 0.0099454790 0.0099454790
0.0099992788 0.0099992788 0.0099992788
0.0100532186 0.0100532186 0.0100532186
0.0101072989 0.0101072989 0.0101072989
0.0101615200 0.0101615200 0.0101615200
0.0102158822 0.0102158822 0.0102158822
0.0102703860 0.0102703860 0.0102703860
0.0103250317 0.0103250317 0.0103250317
0.0103798198 0.0103798198 0.0103798198
0.0104347508 0.0104347508 0.0104347508
0.0104898248 0.0104898248 0.0104898248
0.0105450425 0.0105450425 0.0105450425
0.0106004043 0.0106004043 0.0106004043
0.0106559104 0.0106559104 0.0106559104
0.0107115613 0.0107115613 0.0107115613
0.0107673575 0.0107673575 0.0107673575
0.0108232994 0.0108232994 0.0108232994
0.0108793873 0.0108793873 0.0108793873
0.0109356216 0.0109356216 0.0109356216
0.0109920029 0.0109920029 0.0109920029
0.0110485314 0.0110485314 0.0110485314
0.0111052076 0.0111052076 0.0111052076
0.0111620318 0.0111620318 0.0111620318
0.0112190046 0.0112190046 0.0112190046
0.0112761264 0.0112761264 0.0112761264
0.0113333974 0.0113333974 0.0113333974
0.0113908181 0.0113908181 0.0113908181
0.0114483890 0.0114483890 0.0114483890
0.0115061105 0.0115061105 0.0115061105
0.0115639829 0.0115639829 0.0115639829
0.0116220067 0.0116220067 0.0116220067
0.0116801822 0.0116801822 0.0116801822
0.0117385099 0.0117385099 0.0117385099
0.0117969903 0.0117969903 0.0117969903
0.0118556236 0.0118556236 0.0118556236
0.0119144103 0.0119144103 0.0119144103
0.0119733508 0.0119733508 0.0119733508
0.0120324456 0.0120324456 0.0120324456
0.0120916950 0.0120916950 0.0120916950
0.0121510994 0.0121510994 0.0121510994
0.0122106593 0.0122106593 0.0122106593
0.0122703751 0.0122703751 0.0122703751
0.0123302471 0.0123302471 0.0123302471
0.0123902758 0.0123902758 0.0123902758
0.0124504616 0.0124504616 0.0124504616
0.0125108048 0.0125108048 0.0125108048
0.0125713060 0.0125713060 0.0125713060
0.0126319655 0.0126319655 0.0126319655
0.0126927837 0.0126927837 0.0126927837
0.0127537610 0.0127537610 0.0127537610
0.0128148979 0.0128148979 0.0128148979
0.0128761947 0.0128761947 0.0128761947
0.0129376519 0.0129376519 0.0129376519
0.0129992698 0.0129992698 0.0129992698
0.0130610489 0.0130610489 0.0130610489
0.0131229896 0.0131229896 0.0131229896
0.0131850922 0.0131850922 0.0131850922
0.0132473573 0.0132473573 0.0132473573
0.0133097851 0.0133097851 0.0133097851
0.0133723762 0.0133723762 0.0133723762
0.0134351309 0.0134351309 0.0134351309
0.0134980496 0.0134980496 0.0134980496
0.0135611328 0.0135611328 0.0135611328
0.0136243808 0.0136243808 0.0136243808
0.0136877941 0.0136877941 0.0136877941
0.0137513730 0.0137513730 0.0137513730
0.0138151180 0.0138151180 0.0138151180
0.0138790295 0.0138790295 0.0138790295
0.0139431079 0.0139431079 0.0139431079
0.0140073536 0.0140073536 0.0140073536
0.0140717672 0.0140717672 0.0140717672
0.0141363491 0.0141363491 0.0141363491
0.0142010998 0.0142010998 0.0142010998
0.0142660198 0.0142660198 0.0142660198
0.0143311094 0.0143311094 0.0143311094
0.0143963693 0.0143963693 0.0143963693
0.0144617999 0.0144617999 0.0144617999
0.0145274015 0.0145274015 0.0145274015
0.0145931749 0.0145931749 0.0145931749
0.0146591203 0.0146591203 0.0146591203
0.0147252382 0.0147252382 0.0147252382
0.0147915292 0.0147915292 0.0147915292
0.0148579937 0.0148579937 0.0148579937
0.0149246322 0.0149246322 0.0149246322
0.0149914451 0.0149914451 0.0149914451
0.0150584329 0.0150584329 0.0150584329
0.0151255962 0.0151255962 0.0151255962
0.0151929353 0.0151929353 0.0151929353
0.0152604507 0.0152604507 0.0152604507
0.0153281430 0.0153281430 0.0153281430
0.0153960125 0.0153960125 0.0153960125
0.0154640598 0.0154640598 0.0154640598
0.0155322853 0.0155322853 0.0155322853
0.0156006895 0.0156006895 0.0156006895
0.0156692729 0.0156692729 0.0156692729
0.0157380359 0.0157380359 0.0157380359
0.0158069791 0.0158069791 0.0158069791
0.0158761028 0.0158761028 0.0158761028
0.0159454076 0.0159454076 0.0159454076
0.0160148939 0.0160148939 0.0160148939
0.0160845623 0.0160845623 0.0160845623
0.0161544131 0.0161544131 0.0161544131
0.0162244468 0.0162244468 0.0162244468
0.0162946640 0.0162946640 0.0162946640
0.0163650651 0.0163650651 0.0163650651
0.0164356505 0.0164356505 0.0164356505
0.0165064208 0.0165064208 0.0165064208
0.0165773764 0.0165773764 0.0165773764
0.0166485177 0.0166485177 0.0166485177
0.0167198453 0.0167198453 0.0167198453
0.0167913597 0.0167913597 0.0167913597
0.0168630612 0.0168630612 0.0168630612
0.0169349504 0.0169349504 0.0169349504
0.0170070278 0.0170070278 0.0170070278
0.0170792937 0.0170792937 0.0170792937
0.0171517488 0.0171517488 0.0171517488
0.0172243934 0.0172243934 0.0172243934
0.0172972281 0.0172972281 0.0172972281
0.0173702532 0.0173702532 0.0173702532
0.0174434693 0.0174434693 0.0174434693
0.0175168769 0.0175168769 0.0175168769
0.0175904764 0.0175904764 0.0175904764
0.0176642683 0.0176642683 0.0176642683
0.0177382530 0.0177382530 0.0177382530
0.0178124311 0.0178124311 0.0178124311
0.0178868030 0.0178868030 0.0178868030
0.0179613692 0.0179613692 0.0179613692
0.0180361301 0.0180361301 0.0180361301
0.0181110863 0.0181110863 0.0181110863
0.0181862381 0.0181862381 0.0181862381
0.0182615861 0.0182615861 0.0182615861
0.0183371308 0.0183371308 0.0183371308
0.0184128726 0.0184128726 0.0184128726
0.0184888120 0.0184888120 0.0184888120
0.0185649498 0.0185649498 0.0185649498
0.0186412863 0.0186412863 0.0186412863
0.0187178222 0.0187178222 0.0187178222
0.0187945580 0.0187945580 0.0187945580
0.0188714943 0.0188714943 0.0188714943
0.0189486317 0.0189486317 0.0189486317
0.0190259706 0.0190259706 0.0190259706
0.0191035117 0.0191035117 0.0191035117
0.0191812556 0.0191812556 0.0191812556
0.0192592028 0.0192592028 0.0192592028
0.0193373538 0.0193373538 0.0193373538
0.0194157092 0.0194157092 0.0194157092
0.0194942696 0.0194942696 0.0194942696
0.0195730355 0.0195730355 0.0195730355
0.0196520076 0.0196520076 0.0196520076
0.0197311863 0.0197311863 0.0197311863
0.0198105722 0.0198105722 0.0198105722
0.0198901659 0.0198901659 0.0198901659
0.0199699679 0.0199699679 0.0199699679
0.0200499788 0.0200499788 0.0200499788
0.0201301992 0.0201301992 0.0201301992
0.0202106296 0.0202106296 0.0202106296
0.0202912706 0.0202912706 0.0202912706
0.0203721228 0.0203721228 0.0203721228
0.0204531867 0.0204531867 0.0204531867
0.0205344628 0.0205344628 0.0205344628
0.0206159517 0.0206159517 0.0206159517
0.0206976541 0.0206976541 0.0206976541
0.0207795704 0.0207795704 0.0207795704
0.0208617012 0.0208617012 0.0208617012
0.0209440470 0.0209440470 0.0209440470
0.0210266085 0.0210266085 0.0210266085
0.0211093863 0.0211093863 0.0211093863
0.0211923807 0.0211923807 0.0211923807
0.0212755925 0.0212755925 0.0212755925
0.0213590221 0.0213590221 0.0213590221
0.0214426702 0.0214426702 0.0214426702
0.0215265373 0.0215265373 0.0215265373
0.0216106240 0.0216106240 0.0216106240
0.0216949307 0.0216949307 0.0216949307
0.0217794582 0.0217794582 0.0217794582
0.0218642069 0.0218642069 0.0218642069
0.0219491774 0.0219491774 0.0219491774
0.0220343702 0.0220343702 0.0220343702
0.0221197860 0.0221197860 0.0221197860
0.0222054253 0.0222054253 0.0222054253
0.0222912886 0.0222912886 0.0222912886
0.0223773765 0.0223773765 0.0223773765
0.0224636896 0.0224636896 0.0224636896
0.0225502284 0.0225502284 0.0225502284
0.0226369936 0.0226369936 0.0226369936
0.0227239855 0.0227239855 0.0227239855
0.0228112049 0.0228112049 0.0228112049
0.0228986523 0.0228986523 0.0228986523
0.0229863282 0.0229863282 0.0229863282
0.0230742331 0.0230742331 0.0230742331
0.0231623678 0.0231623678 0.0231623678
0.0232507326 0.0232507326 0.0232507326
0.0233393283 0.0233393283 0.0233393283
0.0234281553 0.0234281553 0.0234281553
0.0235172141 0.0235172141 0.0235172141
0.0236065055 0.0236065055 0.0236065055
0.0236960299 0.0236960299 0.0236960299
0.0237857879 0.0237857879 0.0237857879
0.0238757804 0.0238757804 0.0238757804
0.0239660078 0.0239660078 0.0239660078
0.0240564710 0.0240564710 0.0240564710
0.0241471705 0.0241471705 0.0241471705
0.0242381070 0.0242381070 0.0242381070
0.0243292811 0.0243292811 0.0243292811
0.0244206936 0.0244206936 0.0244206936
0.0245123451 0.0245123451 0.0245123451
0.0246042363 0.0246042363 0.0246042363
0.0246963677 0.0246963677 0.0246963677
0.0247887402 0.0247887402 0.0247887402
0.0248813542 0.0248813542 0.0248813542
0.0249742106 0.0249742106 0.0249742106
0.0250673100 0.0250673100 0.0250673100
0.0251606530 0.0251606530 0.0251606530
0.0252542402 0.0252542402 0.0252542402
0.0253480725 0.0253480725 0.0253480725
0.0254421503 0.0254421503 0.0254421503
0.0255364744 0.0255364744 0.0255364744
0.0256310455 0.0256310455 0.0256310455
0.0257258642 0.0257258642 0.0257258642
0.0258209311 0.0258209311 0.0258209311
0.0259162469 0.0259162469 0.0259162469
0.0260118124 0.0260118124 0.0260118124
0.0261076281 0.0261076281 0.0261076281
0.0262036947 0.0262036947 0.0262036947
0.0263000129 0.0263000129 0.0263000129
0.0263965833 0.0263965833 0.0263965833
0.0264934066 0.0264934066 0.0264934066
0.0265904835 0.0265904835 0.0265904835
0.0266878146 0.0266878146 0.0266878146
0.0267854006 0.0267854006 0.0267854006
0.0268832422 0.0268832422 0.0268832422
0.0269813399 0.0269813399 0.0269813399
0.0270796945 0.0270796945 0.0270796945
0.0271783067 0.0271783067 0.0271783067
0.0272771771 0.0272771771 0.0272771771
0.0273763063 0.0273763063 0.0273763063
0.0274756950 0.0274756950 0.0274756950
0.0275753440 0.0275753440 0.0275753440
0.0276752538 0.0276752538 0.0276752538
0.0277754250 0.0277754250 0.0277754250
0.0278758585 0.0278758585 0.0278758585
0.0279765548 0.0279765548 0.0279765548
0.0280775146 0.0280775146 0.0280775146
0.0281787385 0.0281787385 0.0281787385
0.0282802273 0.0282802273 0.0282802273
0.0283819815 0.0283819815 0.0283819815
0.0284840019 0.0284840019 0.0284840019
0.0285862891 0.0285862891 0.0285862891
0.0286888438 0.0286888438 0.0286888438
0.0287916666 0.0287916666 0.0287916666
0.0288947582 0.0288947582 0.0288947582
0.0289981192 0.0289981192 0.0289981192
0.0291017504 0.0291017504 0.0291017504
0.0292056524 0.0292056524 0.0292056524
0.0293098258 0.0293098258 0.0293098258
0.0294142712 0.0294142712 0.0294142712
0.0295189895 0.0295189895 0.0295189895
0.0296239812 0.0296239812 0.0296239812
0.0297292470 0.0297292470 0.0297292470
0.0298347875 0.0298347875 0.0298347875
0.0299406035 0.0299406035 0.0299406035
0.0300466957 0.0300466957 0.0300466957
0.0301530649 0.0301530649 0.0301530649
0.0302597118 0.0302597118 0.0302597118
0.0303666374 0.0303666374 0.0303666374
0.0304738423 0.0304738423 0.0304738423
0.0305813273 0.0305813273 0.0305813273
0.0306890932 0.0306890932 0.0306890932
0.0307971408 0.0307971408 0.0307971408
0.0309054709 0.0309054709 0.0309054709
0.0310140842 0.0310140842 0.0310140842
0.0311229816 0.0311229816 0.0311229816
0.0312321638 0.0312321638 0.0312321638
0.0313416317 0.0313416317 0.0313416317
0.0314513859 0.0314513859 0.0314513859
0.0315614273 0.0315614273 0.0315614273
0.0316717566 0.0316717566 0.0316717566
0.0317823747 0.0317823747 0.0317823747
0.0318932823 0.0318932823 0.0318932823
0.0320044802 0.0320044802 0.0320044802
0.0321159692 0.0321159692 0.0321159692
0.0322277501 0.0322277501 0.0322277501
0.0323398237 0.0323398237 0.0323398237
0.0324521906 0.0324521906 0.0324521906
0.0325648518 0.0325648518 0.0325648518
0.0326778080 0.0326778080 0.0326778080
0.0327910600 0.0327910600 0.0327910600
0.0329046085 0.0329046085 0.0329046085
0.0330184545 0.0330184545 0.0330184545
0.0331325985 0.0331325985 0.0331325985
0.0332470414 0.0332470414 0.0332470414
0.0333617841 0.0333617841 0.0333617841
0.0334768272 0.0334768272 0.0334768272
0.0335921717 0.0335921717 0.0335921717
0.0337078181 0.0337078181 0.0337078181
0.0338237674 0.0338237674 0.0338237674
0.0339400203 0.0339400203 0.0339400203
0.0340565776 0.0340565776 0.0340565776
0.0341734401 0.0341734401 0.0341734401
0.0342906086 0.0342906086 0.0342906086
0.0344080838 0.0344080838 0.0344080838
0.0345258665 0.0345258665 0.0345258665
0.0346439575 0.0346439575 0.0346439575
0.0347623577 0.0347623577 0.0347623577
0.0348810677 0.0348810677 0.0348810677
0.0350000884 0.0350000884 0.0350000884
0.0351194205 0.0351194205 0.0351194205
0.0352390648 0.0352390648 0.0352390648
0.0353590222 0.0353590222 0.0353590222
0.0354792933 0.0354792933 0.0354792933
0.0355998791 0.0355998791 0.0355998791
0.0357207802 0.0357207802 0.0357207802
0.0358419974 0.0358419974 0.0358419974
0.0359635315 0.0359635315 0.0359635315
0.0360853834 0.0360853834 0.0360853834
0.0362075538 0.0362075538 0.0362075538
0.0363300434 0.0363300434 0.0363300434
0.0364528531 0.0364528531 0.0364528531
0.0365759836 0.0365759836 0.0365759836
0.0366994358 0.0366994358 0.0366994358
0.0368232103 0.0368232103 0.0368232103
0.0369473080 0.0369473080 0.0369473080
0.0370717298 0.0370717298 0.0370717298
0.0371964762 0.0371964762 0.0371964762
0.0373215483 0.0373215483 0.0373215483
0.0374469468 0.0374469468 0.0374469468
0.0375726727 0.0375726727 0.0375726727
0.0376987270 0.0376987270 0.0376987270
0.0378251105 0.0378251105 0.0378251105
0.0379518242 0.0379518242 0.0379518242
0.0380788690 0.0380788690 0.0380788690
0.0382062459 0.0382062459 0.0382062459
0.0383339557 0.0383339557 0.0383339557
0.0384619993 0.0384619993 0.0384619993
0.0385903778 0.0385903778 0.0385903778
0.0387190921 0.0387190921 0.0387190921
0.0388481430 0.0388481430 0.0388481430
0.0389775315 0.0389775315 0.0389775315
0.0391072584 0.0391072584 0.0391072584
0.0392373249 0.0392373249 0.0392373249
0.0393677317 0.0393677317 0.0393677317
0.0394984797 0.0394984797 0.0394984797
0.0396295700 0.0396295700 0.0396295700
0.0397610035 0.0397610035 0.0397610035
0.0398927809 0.0398927809 0.0398927809
0.0400249034 0.0400249034 0.0400249034
0.0401573718 0.0401573718 0.0401573718
0.0402901870 0.0402901870 0.0402901870
0.0404233500 0.0404233500 0.0404233500
0.0405568617 0.0405568617 0.0405568617
0.0406907230 0.0406907230 0.0406907230
0.0408249348 0.0408249348 0.0408249348
0.0409594981 0.0409594981 0.0409594981
0.0410944138 0.0410944138 0.0410944138
